X: 12840
T: Female Sailor, The
R: jig
M: 6/8
K: Gminor
D|:"Gm"G2d "D7"d2c|"Gm"B3 "Cm"c3|"D7"d2c B2A|"Gm"B2A "D7"G2F|
"Gm"G2d "D7"d2c|"Gm"B3 "Cm"c3|"D7"d2c B2A|1 "Gm"G3G2 D:|2 "Gm"G6||
|:"Gm"b2a "D7"g2^f|"Gm"g3 d3|b2a "D7"g2^f|"Gm"g3 "G7"d2f|"Cm"e2c "D7"d2A|
"Gm"B2G B2c|1 "D7"d2d ^f2f|"Gm"g3 "D7"a3:|2 "D7"d2d B2A|"Gm"G3G2 D||

